assets/images/ico_with.svg

<svg width="18" height="19" viewBox="0 0 18 19" fill="none" xmlns="http://www.w3.org/2000/svg">
<path d="M9 0C4.0274 0 0 4.07478 0 9.10589C0 14.137 4.0274 18.2118 9 18.2118C13.9726 18.2118 18 14.137 18 9.10589C18 4.07478 13.9726 0 9 0ZM12.2877 6.17454C13.1301 6.15375 13.5616 7.19323 12.9658 7.79614L8.60958 12.2036C8.34246 12.4738 7.89041 12.4738 7.62328 12.2036L5.42465 9.93748C4.52054 9.04352 5.85616 7.69219 6.73973 8.60694L7.9726 9.85432C8.05479 9.93748 8.21917 9.93748 8.30136 9.85432L11.6712 6.44481C11.8151 6.27849 12.0411 6.17454 12.2877 6.17454Z" fill="#81D100"/>
</svg>

<svg width="18" height="19" fill="none" xmlns="http://www.w3.org/2000/svg"><path d="M9 0C4.027 0 0 4.075 0 9.106s4.027 9.106 9 9.106 9-4.075 9-9.106S13.973 0 9 0zm3.288 6.175c.842-.021 1.274 1.018.678 1.621L8.61 12.204a.701.701 0 01-.987 0L5.425 9.937c-.904-.893.431-2.245 1.315-1.33l1.233 1.247a.248.248 0 00.328 0l3.37-3.41a.816.816 0 01.617-.27z" fill="#81D100"/></svg>
